svgs/quicktiles.svg

<svg xmlns="http://www.w3.org/2000/svg" viewBox="0 0 192 192"><path d="M16.5 16.5h73.451v73.451H16.5ZM89.951 16.5h73.451v73.451H89.951ZM16.5 89.951h73.451v73.451H16.5Zm85.549 12.098H175.5V175.5h-73.451Z" fill="none" stroke="#000" stroke-width="8" stroke-linecap="round" stroke-linejoin="round"/></svg>

<svg
    xmlns="http://www.w3.org/2000/svg"
    viewBox="0 0 192 192"
    id="vector">
    <path
        id="path"
        d="M 16.5 16.5 L 89.951 16.5 L 89.951 89.951 L 16.5 89.951 Z"
        fill="none"
        stroke="#000000"
        stroke-width="8"
        stroke-linecap="round"
        stroke-linejoin="round"/>
    <path
        id="path_1"
        d="M 89.951 16.5 L 163.402 16.5 L 163.402 89.951 L 89.951 89.951 Z M 16.5 89.951 L 89.951 89.951 L 89.951 163.402 L 16.5 163.402 Z M 102.049 102.049 L 175.5 102.049 L 175.5 175.5 L 102.049 175.5 Z"
        fill="none"
        stroke="#000000"
        stroke-width="8"
        stroke-linecap="round"
        stroke-linejoin="round"/>
</svg>
